X: 25749
T: Mary O'Neill's
R: reel
M: 4/4
K: Dmajor
|:FA|FAAB AFDE|FFEG FDDE|FAAB AFDE|FFEA D2:|
|:A/B/c|d3 A FGAB|A2 dA (3Bcd ec|d3 A FGAB|AFGE FD:|

